usr/share/icons/biglinux-icons-material/22/actions/hide-menu.svg

<svg width="24" height="24" viewBox="0 0 24 24" fill="none" xmlns="http://www.w3.org/2000/svg">
<rect width="24" height="24" fill="#A4A4A4" fill-opacity="0.01"/>
<rect x="4" y="6" width="16" height="2" rx="0.5" fill="#FAFAFA"/>
<rect x="4" y="16" width="16" height="2" rx="0.5" fill="#FAFAFA"/>
<rect x="4" y="11" width="16" height="2" rx="0.5" fill="#FAFAFA"/>
<path d="M17.038 18.4646C16.8432 18.6594 16.5275 18.6599 16.332 18.4657L14.5137 16.6592C14.3764 16.5227 14.173 16.4796 13.9876 16.5356C13.7388 16.6106 13.4809 16.67 13.2139 16.7139C12.8376 16.7758 12.433 16.8067 12 16.8067C10.3196 16.8067 8.80412 16.3299 7.45361 15.3763C6.15142 14.4568 5.18949 13.2234 4.56781 11.6761C4.52301 11.5647 4.52202 11.4402 4.56627 11.3285C4.75434 10.8536 4.99772 10.391 5.29639 9.94072C5.53842 9.57581 5.79794 9.23243 6.07493 8.91055C6.25188 8.70494 6.24906 8.39596 6.05724 8.20414L5.10098 7.24788C4.90571 7.05262 4.90571 6.73604 5.10098 6.54078L5.53797 6.10378C5.73332 5.90843 6.05008 5.90853 6.24531 6.10401L17.4613 17.3346C17.6564 17.5299 17.6563 17.8463 17.4611 18.0415L17.038 18.4646ZM12 14.4253C12.0515 14.4253 12.1031 14.4227 12.1546 14.4175V14.4175C12.221 14.4109 12.2455 14.3312 12.1981 14.2842L9.29706 11.4109C9.21563 11.3303 9.07732 11.388 9.07732 11.5026V11.5026C9.07732 12.3273 9.35825 13.0206 9.9201 13.5825C10.482 14.1443 11.1753 14.4253 12 14.4253ZM17.4921 14.5564C17.3045 14.7406 17.0051 14.7294 16.8192 14.5434L14.9919 12.7162C14.8398 12.564 14.8089 12.3321 14.8567 12.1223C14.8677 12.0744 14.8768 12.025 14.884 11.9742C14.9098 11.7938 14.9227 11.6366 14.9227 11.5026C14.9227 10.6778 14.6418 9.98454 14.0799 9.42268C13.518 8.86082 12.8247 8.5799 12 8.5799C11.8454 8.5799 11.683 8.59536 11.5129 8.62629C11.4554 8.63675 11.3993 8.64838 11.3448 8.6612C11.1567 8.70537 10.9541 8.66289 10.8175 8.52626L9.58019 7.28895C9.32699 7.03575 9.41592 6.60902 9.76035 6.51108C9.98529 6.44712 10.219 6.39188 10.4613 6.34536C10.9716 6.24742 11.4845 6.19845 12 6.19845C13.6701 6.19845 15.1778 6.67268 16.5232 7.62113C17.8206 8.53579 18.7897 9.77163 19.4303 11.3287C19.4763 11.4403 19.4781 11.5654 19.4344 11.678C19.2034 12.2727 18.8953 12.8354 18.5103 13.366C18.1888 13.809 17.8494 14.2058 17.4921 14.5564ZM13.0438 10.5902C13.0747 10.6643 12.9884 10.6998 12.9307 10.644L12.7432 10.4627C12.6861 10.4076 12.7199 10.3142 12.7964 10.3351V10.3351C12.8531 10.3505 12.9021 10.384 12.9433 10.4356C12.9845 10.4768 13.018 10.5284 13.0438 10.5902V10.5902Z" fill="#CCCCCC"/>
</svg>

<svg xmlns="http://www.w3.org/2000/svg" width="24" height="24" fill="none"><path fill="#A4A4A4" fill-opacity=".01" d="M0 0h24v24H0z"/><rect width="16" height="2" x="4" y="6" fill="#FAFAFA" rx=".5"/><rect width="16" height="2" x="4" y="16" fill="#FAFAFA" rx=".5"/><rect width="16" height="2" x="4" y="11" fill="#FAFAFA" rx=".5"/><path fill="#CCC" d="M17.038 18.465a.5.5 0 0 1-.706 0l-1.818-1.806a.528.528 0 0 0-.526-.123 6.116 6.116 0 0 1-.774.178c-.376.062-.781.093-1.214.093-1.68 0-3.196-.477-4.546-1.43-1.303-.92-2.265-2.154-2.886-3.7a.469.469 0 0 1-.002-.348c.188-.475.432-.938.73-1.388.242-.365.502-.709.779-1.03a.52.52 0 0 0-.018-.707l-.956-.956a.5.5 0 0 1 0-.707l.437-.437a.5.5 0 0 1 .707 0l11.216 11.23a.5.5 0 0 1 0 .707l-.423.424ZM12 14.425c.052 0 .103-.002.155-.008.066-.006.09-.086.043-.133l-2.9-2.873a.129.129 0 0 0-.22.092c0 .824.28 1.518.842 2.08.562.561 1.255.842 2.08.842Zm5.492.131a.477.477 0 0 1-.673-.013l-1.827-1.827c-.152-.152-.183-.384-.135-.594a3.39 3.39 0 0 0 .066-.62c0-.824-.281-1.517-.843-2.08-.562-.561-1.255-.842-2.08-.842a2.725 2.725 0 0 0-.655.081.56.56 0 0 1-.527-.135L9.58 7.29c-.253-.253-.164-.68.18-.778A8.25 8.25 0 0 1 12 6.198c1.67 0 3.178.475 4.523 1.423 1.298.915 2.267 2.15 2.907 3.708a.47.47 0 0 1 .004.349 7.473 7.473 0 0 1-.924 1.688c-.321.443-.66.84-1.018 1.19Zm-4.448-3.966c.03.074-.056.11-.113.054l-.188-.181c-.057-.055-.023-.149.053-.128a.28.28 0 0 1 .147.1.473.473 0 0 1 .1.155Z"/></svg>
